packages/assets/static/images/icons/bold/sign-language--bold.svg

<svg width="24" height="24" viewBox="0 0 24 24" xmlns="http://www.w3.org/2000/svg">
<path d="M23.0404 15.5617C22.7854 13.9867 22.1563 12.4398 21.1729 10.9633C21.1485 10.9267 21.1223 10.8911 21.0951 10.8573C21.0557 10.8048 21.0135 10.7551 20.9695 10.7073C20.7941 10.4542 20.5954 10.2161 20.3779 9.9967C19.4113 9.02826 18.0707 8.47326 16.6973 8.47326C16.0907 8.47326 15.4954 8.57826 14.9273 8.78451C14.167 9.06107 13.6673 9.73982 13.581 10.4945C13.132 10.5451 12.7185 10.7429 12.397 11.0448C12.5966 9.4717 12.066 7.85639 10.9176 6.70982C10.6241 6.41639 10.3007 6.16139 9.95476 5.95045C10.1704 5.85107 10.3954 5.75826 10.6298 5.67201C11.1482 5.48264 11.5616 5.10201 11.7932 4.60139C12.0257 4.10076 12.0491 3.5392 11.8588 3.02076C11.5616 2.21076 10.7816 1.66607 9.91914 1.66607C9.6782 1.66607 9.44101 1.70826 9.2132 1.79076C9.21133 1.79076 9.21039 1.7917 9.20851 1.79264C8.92164 1.89764 8.64133 2.01107 8.36945 2.13295C8.25976 1.85357 8.08726 1.59576 7.85383 1.38107C7.47133 1.02951 6.97445 0.835449 6.45508 0.835449C5.87101 0.835449 5.31226 1.08389 4.92133 1.51701C4.69914 1.76357 4.48914 2.01482 4.29133 2.26982C4.14883 2.19014 3.99508 2.12639 3.83383 2.08139C3.65008 2.03076 3.46351 2.00451 3.27695 2.00451C2.35445 2.00451 1.53695 2.62514 1.28758 3.51295C0.814139 5.20326 0.704451 6.86076 0.959451 8.43857C1.21445 10.0136 1.84351 11.5604 2.82695 13.037C2.85133 13.0736 2.87758 13.1092 2.90476 13.1429C2.94414 13.1954 2.98633 13.2451 3.03039 13.2929C3.2057 13.5461 3.40445 13.7842 3.62195 14.0036C4.58851 14.972 5.92914 15.527 7.30258 15.527C7.90914 15.527 8.50445 15.422 9.07258 15.2158C9.83289 14.9392 10.3326 14.2605 10.4188 13.5058C10.8679 13.4551 11.2813 13.2573 11.6029 12.9554C11.4032 14.5286 11.9338 16.1439 13.0823 17.2904C13.3757 17.5839 13.6991 17.8389 14.0451 18.0498C13.8295 18.1492 13.6045 18.242 13.3701 18.3283C12.8516 18.5176 12.4382 18.8983 12.2066 19.3989C11.9741 19.8995 11.9507 20.4611 12.141 20.9795C12.4382 21.7895 13.2182 22.3342 14.0807 22.3342C14.3216 22.3342 14.5588 22.292 14.7866 22.2095C14.7885 22.2095 14.7894 22.2086 14.7913 22.2076C15.0782 22.1026 15.3585 21.9892 15.6304 21.8673C15.7401 22.1467 15.9126 22.4045 16.146 22.6192C16.5285 22.9708 17.0254 23.1648 17.5448 23.1648C18.1288 23.1648 18.6876 22.9164 19.0785 22.4833C19.3007 22.2367 19.5107 21.9854 19.7085 21.7304C19.851 21.8101 20.0048 21.8739 20.166 21.9189C20.3498 21.9695 20.5363 21.9958 20.7229 21.9958C21.6454 21.9958 22.4629 21.3751 22.7123 20.4873C23.1857 18.797 23.2954 17.1395 23.0404 15.5617ZM10.7188 11.6467C10.6354 11.8764 10.4188 12.0189 10.1873 12.0189C10.1226 12.0189 10.0579 12.0076 9.9932 11.9842C9.69976 11.8773 9.54789 11.552 9.65476 11.2586C9.99414 10.3267 9.75976 9.27295 9.05758 8.57264C8.57945 8.09451 7.9457 7.83201 7.2707 7.83201C6.4907 7.83201 5.76414 8.18357 5.27195 8.8117C4.99539 9.16514 4.81914 9.5917 4.76476 10.037C4.6682 10.8292 4.93258 11.5914 5.48476 12.1436C5.97226 12.632 6.63039 12.8945 7.29976 12.8945C7.59226 12.8945 7.88664 12.8448 8.16976 12.7417C8.23351 12.7183 8.29914 12.707 8.36289 12.707C8.59445 12.707 8.81101 12.8495 8.89539 13.0801C9.00226 13.3736 8.85039 13.6989 8.55695 13.8058C8.1482 13.9548 7.72258 14.027 7.3007 14.027C6.33508 14.027 5.38539 13.6492 4.6832 12.9451C4.49383 12.7548 4.32883 12.5486 4.19008 12.3311C4.14695 12.2964 4.10758 12.2542 4.0757 12.2054H4.07383C2.33758 9.60107 1.89883 6.89076 2.73039 3.91889C2.8007 3.66857 3.02758 3.50545 3.27508 3.50545C3.3257 3.50545 3.37726 3.51295 3.42789 3.52701C3.72976 3.61139 3.90508 3.92451 3.8207 4.22545C3.64726 4.8442 3.53664 5.45076 3.48883 6.04607C3.47758 6.18857 3.59008 6.27295 3.70258 6.27295C3.78508 6.27295 3.86758 6.22795 3.90039 6.1267C4.31664 4.83482 5.02633 3.63951 6.03414 2.52295C6.1457 2.3992 6.29945 2.33639 6.45508 2.33639C6.59195 2.33639 6.72976 2.38607 6.83851 2.48639C7.06914 2.6992 7.07101 3.06482 6.86101 3.29826C6.16633 4.07076 5.63289 4.88732 5.25789 5.75357C5.18851 5.91295 5.31695 6.05076 5.45476 6.05076C5.51101 6.05076 5.5682 6.02826 5.61414 5.97389C6.67539 4.73639 8.03851 3.81951 9.72601 3.20076C9.7907 3.17732 9.85633 3.16607 9.92101 3.16607C10.1516 3.16607 10.3682 3.30857 10.4526 3.53732C10.5604 3.83076 10.4095 4.15607 10.116 4.26389C8.90101 4.7092 7.87539 5.32889 7.02883 6.13514C6.8132 6.34045 6.96508 6.70045 7.2632 6.70045C7.2632 6.70045 7.26883 6.70045 7.27258 6.70045C8.25039 6.70045 9.16914 7.08107 9.86008 7.77201C10.8716 8.78264 11.2101 10.3033 10.7207 11.6467H10.7188ZM8.24476 10.7458C8.18758 10.9023 8.15101 11.0617 8.1332 11.2201C7.97101 11.2379 7.81258 11.2754 7.65789 11.3317C7.54351 11.3739 7.42351 11.3945 7.3007 11.3945C7.01851 11.3945 6.74383 11.282 6.54789 11.0851C6.3182 10.8554 6.21414 10.5479 6.25445 10.2198C6.27601 10.0436 6.34539 9.8767 6.45508 9.73701C6.65851 9.47639 6.94914 9.33295 7.27258 9.33295C7.55101 9.33295 7.80133 9.43701 7.99914 9.63389C8.2907 9.92451 8.38726 10.3604 8.24664 10.7458H8.24476ZM21.2685 20.0823C21.1982 20.3326 20.9713 20.4958 20.7238 20.4958C20.6732 20.4958 20.6216 20.4883 20.571 20.4742C20.2691 20.3898 20.0938 20.0767 20.1782 19.7758C20.3516 19.157 20.4623 18.5504 20.5101 17.9551C20.5213 17.8126 20.4088 17.7283 20.2963 17.7283C20.2138 17.7283 20.1313 17.7733 20.0985 17.8745C19.6823 19.1664 18.9726 20.3617 17.9648 21.4783C17.8532 21.602 17.6994 21.6648 17.5438 21.6648C17.4069 21.6648 17.2691 21.6151 17.1604 21.5148C16.9298 21.302 16.9279 20.9364 17.1379 20.7029C17.8326 19.9304 18.366 19.1139 18.741 18.2476C18.8104 18.0883 18.6819 17.9504 18.5441 17.9504C18.4879 17.9504 18.4307 17.9729 18.3848 18.0273C17.3235 19.2648 15.9604 20.1817 14.2729 20.8004C14.2082 20.8239 14.1426 20.8351 14.0779 20.8351C13.8473 20.8351 13.6307 20.6926 13.5463 20.4639C13.4385 20.1704 13.5894 19.8451 13.8829 19.7373C15.0979 19.292 16.1235 18.6723 16.9701 17.8661C17.1857 17.6608 17.0338 17.3008 16.7357 17.3008C16.7357 17.3008 16.7301 17.3008 16.7263 17.3008C15.7485 17.3008 14.8298 16.9201 14.1388 16.2292C13.1273 15.2186 12.7888 13.6979 13.2782 12.3545C13.3616 12.1248 13.5782 11.9814 13.8098 11.9814C13.8744 11.9814 13.9391 11.9926 14.0038 12.0161C14.2973 12.1229 14.4491 12.4483 14.3423 12.7417C14.0029 13.6736 14.2373 14.7273 14.9395 15.4276C15.4176 15.9058 16.0513 16.1683 16.7263 16.1683C17.5063 16.1683 18.2329 15.8167 18.7251 15.1886C19.0016 14.8351 19.1779 14.4086 19.2323 13.9633C19.3288 13.1711 19.0645 12.4089 18.5123 11.8567C18.0248 11.3683 17.3666 11.1058 16.6973 11.1058C16.4048 11.1058 16.1104 11.1554 15.8273 11.2586C15.7635 11.282 15.6979 11.2933 15.6341 11.2933C15.4026 11.2933 15.186 11.1508 15.1016 10.9211C14.9948 10.6276 15.1466 10.3023 15.4401 10.1954C15.8488 10.0464 16.2745 9.9742 16.6963 9.9742C17.662 9.9742 18.6116 10.352 19.3138 11.0561C19.5032 11.2464 19.6682 11.4526 19.8069 11.6701C19.8501 11.7048 19.8895 11.747 19.9213 11.7958H19.9232C21.6595 14.4001 22.0982 17.1104 21.2666 20.0823H21.2685ZM15.7541 13.2554C15.8113 13.0989 15.8479 12.9395 15.8657 12.7811C16.0279 12.7633 16.1863 12.7258 16.341 12.6695C16.4554 12.6273 16.5754 12.6067 16.6982 12.6067C16.9804 12.6067 17.2551 12.7192 17.451 12.9161C17.6807 13.1458 17.7848 13.4533 17.7444 13.7814C17.7229 13.9576 17.6535 14.1245 17.5438 14.2642C17.3404 14.5248 17.0498 14.6683 16.7263 14.6683C16.4479 14.6683 16.1976 14.5642 15.9998 14.3673C15.7082 14.0767 15.6116 13.6408 15.7523 13.2554H15.7541Z"/>
</svg>

<svg viewBox="0 0 24 24" xmlns="http://www.w3.org/2000/svg" aria-hidden="true" fill="currentColor"><path d="M23.04 15.562c-.255-1.575-.884-3.122-1.867-4.599a2 2 0 0 0-.078-.106 2 2 0 0 0-.125-.15 5.3 5.3 0 0 0-.592-.71 5.23 5.23 0 0 0-3.68-1.524 5.2 5.2 0 0 0-1.77.312c-.761.276-1.26.955-1.347 1.71a2.07 2.07 0 0 0-1.184.55A5.21 5.21 0 0 0 9.955 5.95q.322-.149.675-.278c.518-.19.932-.57 1.163-1.07a2.05 2.05 0 0 0 .066-1.581 2.067 2.067 0 0 0-2.646-1.23q-.003 0-.004.002-.431.157-.84.34a2.062 2.062 0 0 0-3.448-.616q-.333.37-.63.753a2.1 2.1 0 0 0-1.014-.265c-.923 0-1.74.62-1.99 1.508C.815 5.203.705 6.86.96 8.439c.255 1.575.885 3.121 1.868 4.598q.036.055.078.106.06.078.125.15.265.38.592.71a5.23 5.23 0 0 0 3.68 1.524c.607 0 1.202-.105 1.77-.311a2.07 2.07 0 0 0 1.347-1.71c.449-.05.862-.249 1.184-.55a5.21 5.21 0 0 0 2.442 5.094q-.323.15-.675.278c-.518.19-.932.57-1.163 1.07a2.05 2.05 0 0 0-.066 1.582 2.066 2.066 0 0 0 2.646 1.23l.004-.002q.43-.158.84-.34a2.062 2.062 0 0 0 3.448.616q.333-.371.63-.754a2.1 2.1 0 0 0 1.014.266c.922 0 1.74-.62 1.99-1.509.473-1.69.582-3.347.327-4.925M10.72 11.647a.565.565 0 0 1-.726.337.567.567 0 0 1-.338-.725 2.57 2.57 0 0 0-.597-2.686 2.5 2.5 0 0 0-1.787-.741 2.52 2.52 0 0 0-2.506 2.205 2.52 2.52 0 0 0 .72 2.107 2.57 2.57 0 0 0 2.685.598.56.56 0 0 1 .725.338.567.567 0 0 1-.338.726A3.7 3.7 0 0 1 4.19 12.33a.5.5 0 0 1-.114-.126h-.002C2.338 9.601 1.899 6.891 2.73 3.92a.566.566 0 1 1 1.09.306 9.6 9.6 0 0 0-.331 1.821c-.011.143.101.227.214.227a.2.2 0 0 0 .197-.146c.417-1.292 1.126-2.487 2.134-3.604a.564.564 0 0 1 .805-.037c.23.213.232.579.022.812a9 9 0 0 0-1.603 2.456c-.07.159.059.297.197.297a.2.2 0 0 0 .16-.077C6.674 4.736 8.038 3.82 9.725 3.2a.567.567 0 0 1 .39 1.063c-1.215.445-2.24 1.065-3.087 1.871-.216.205-.064.565.234.565h.01c.977 0 1.896.381 2.587 1.072a3.7 3.7 0 0 1 .86 3.875zm-2.474-.901a2 2 0 0 0-.112.474q-.243.027-.475.112a1.068 1.068 0 0 1-1.11-.247 1.02 1.02 0 0 1-.093-1.348 1.02 1.02 0 0 1 .818-.404c.278 0 .528.104.726.3.292.292.388.727.248 1.113zm13.024 9.336a.566.566 0 1 1-1.09-.306 9.6 9.6 0 0 0 .331-1.82c.011-.143-.101-.228-.214-.228a.2.2 0 0 0-.197.146c-.417 1.292-1.126 2.488-2.134 3.604a.564.564 0 0 1-.805.037.58.58 0 0 1-.022-.812 9 9 0 0 0 1.603-2.455c.07-.16-.06-.298-.197-.298a.2.2 0 0 0-.16.077c-1.06 1.238-2.424 2.155-4.111 2.773a.567.567 0 0 1-.39-1.063c1.215-.445 2.24-1.065 3.087-1.87.216-.206.064-.566-.234-.566h-.01c-.977 0-1.896-.38-2.587-1.072a3.7 3.7 0 0 1-.86-3.874.566.566 0 1 1 1.063.387 2.57 2.57 0 0 0 .598 2.686c.478.478 1.111.74 1.786.74a2.52 2.52 0 0 0 2.506-2.205 2.52 2.52 0 0 0-.72-2.106 2.57 2.57 0 0 0-2.685-.598.56.56 0 0 1-.725-.338.567.567 0 0 1 .338-.726 3.7 3.7 0 0 1 4.367 1.475.5.5 0 0 1 .114.126h.002c1.737 2.604 2.175 5.314 1.344 8.286zm-5.515-6.827q.085-.236.112-.474.243-.027.475-.112.172-.062.357-.062c.282 0 .557.112.753.31a1.02 1.02 0 0 1 .093 1.347 1.02 1.02 0 0 1-.818.404c-.278 0-.528-.104-.726-.3a1.06 1.06 0 0 1-.248-1.113z"/></svg>
